svg/design/scissors_2_fill.svg

<?xml version="1.0" encoding="UTF-8"?>
<svg width="24px" height="24px" viewBox="0 0 24 24" version="1.1" xmlns="http://www.w3.org/2000/svg" xmlns:xlink="http://www.w3.org/1999/xlink">
    <title>scissors_2_fill</title>
    <g id="页面-1" stroke="none" stroke-width="1" fill="none" fill-rule="evenodd">
        <g id="Design" transform="translate(-528.000000, -48.000000)">
            <g id="scissors_2_fill" transform="translate(528.000000, 48.000000)">
                 <path d="M24,0 L24,24 L0,24 L0,0 L24,0 Z M12.5934901,23.257841 L12.5819402,23.2595131 L12.5108777,23.2950439 L12.4918791,23.2987469 L12.4918791,23.2987469 L12.4767152,23.2950439 L12.4056548,23.2595131 C12.3958229,23.2563662 12.3870493,23.2590235 12.3821421,23.2649074 L12.3780323,23.275831 L12.360941,23.7031097 L12.3658947,23.7234994 L12.3769048,23.7357139 L12.4804777,23.8096931 L12.4953491,23.8136134 L12.4953491,23.8136134 L12.5071152,23.8096931 L12.6106902,23.7357139 L12.6232938,23.7196733 L12.6232938,23.7196733 L12.6266527,23.7031097 L12.609561,23.275831 C12.6075724,23.2657013 12.6010112,23.2592993 12.5934901,23.257841 L12.5934901,23.257841 Z M12.8583906,23.1452862 L12.8445485,23.1473072 L12.6598443,23.2396597 L12.6498822,23.2499052 L12.6498822,23.2499052 L12.6471943,23.2611114 L12.6650943,23.6906389 L12.6699349,23.7034178 L12.6699349,23.7034178 L12.678386,23.7104931 L12.8793402,23.8032389 C12.8914285,23.8068999 12.9022333,23.8029875 12.9078286,23.7952264 L12.9118235,23.7811639 L12.8776777,23.1665331 C12.8752882,23.1545897 12.8674102,23.1470016 12.8583906,23.1452862 L12.8583906,23.1452862 Z M12.1430473,23.1473072 C12.1332178,23.1423925 12.1221763,23.1452606 12.1156365,23.1525954 L12.1099173,23.1665331 L12.0757714,23.7811639 C12.0751323,23.7926639 12.0828099,23.8018602 12.0926481,23.8045676 L12.108256,23.8032389 L12.3092106,23.7104931 L12.3186497,23.7024347 L12.3186497,23.7024347 L12.3225043,23.6906389 L12.340401,23.2611114 L12.337245,23.2485176 L12.337245,23.2485176 L12.3277531,23.2396597 L12.1430473,23.1473072 Z" id="MingCute" fill-rule="nonzero"></path>
                <path d="M7.38297,1.33704 L13.3836,11.7305 C16.2533,10.0743 19.9223,11.0577 21.579,13.9271 L21.6861,14.1127 C23.2838,16.88 22.3357,20.4185 19.5684,22.0162 C18.031,22.9038 16.0652,22.377 15.1776,20.8396 L11.9999,15.3357 L8.82222,20.8396 C7.93462,22.377 5.96879,22.9038 4.43142,22.0162 C1.66416,20.4185 0.716022,16.88 2.3137,14.1127 L2.42085,13.9271 C3.89874,11.3674 6.97802,10.3085 9.66266,11.2856 L6.03489,5.0021 C5.34454,3.80637 5.75423,2.27739 6.94996,1.58704 L7.38297,1.33704 Z M5.01892,15.4271 L4.91178,15.6127 C4.14252,16.9451 4.59903,18.6488 5.93142,19.4181 C6.03391,19.4773 6.16497,19.4421 6.22414,19.3396 L9.117,14.3291 C7.68212,13.5006 5.84735,13.9923 5.01892,15.4271 Z M14.8828,14.3291 L17.7757,19.3396 C17.8349,19.4421 17.9659,19.4773 18.0684,19.4181 C19.4008,18.6488 19.8573,16.9451 19.088,15.6127 L18.9809,15.4271 C18.1525,13.9923 16.3177,13.5006 14.8828,14.3291 Z M16.617,1.33704 L17.05,1.58704 C18.1958792,2.24862542 18.6198937,3.68041095 18.045681,4.85098284 L17.9651,5.0021 L14.882,10.3421 L13.15,7.34209 L16.617,1.33704 Z" id="形状" fill="#09244B"></path>
            </g>
        </g>
    </g>
</svg>

<svg xmlns="http://www.w3.org/2000/svg" width="24" height="24"><g fill="none" fill-rule="evenodd"><path d="M24 0v24H0V0h24ZM12.593 23.258l-.011.002-.071.035-.02.004-.014-.004-.071-.035c-.01-.004-.019-.001-.024.005l-.004.01-.017.428.005.02.01.013.104.074.015.004.012-.004.104-.074.012-.016.004-.017-.017-.427c-.002-.01-.009-.017-.017-.018Zm.265-.113-.013.002-.185.093-.01.01-.003.011.018.43.005.012.008.007.201.093c.012.004.023 0 .029-.008l.004-.014-.034-.614c-.003-.012-.01-.02-.02-.022Zm-.715.002a.023.023 0 0 0-.027.006l-.006.014-.034.614c0 .012.007.02.017.024l.015-.002.201-.093.01-.008.004-.011.017-.43-.003-.012-.01-.01-.184-.092Z"/><path fill="#09244B" d="m7.383 1.337 6 10.394a6 6 0 0 1 8.196 2.196l.107.186a5.786 5.786 0 0 1-2.118 7.903 3.214 3.214 0 0 1-4.39-1.176L12 15.336 8.822 20.84a3.214 3.214 0 0 1-4.39 1.176 5.786 5.786 0 0 1-2.118-7.903l.107-.186a6.002 6.002 0 0 1 7.242-2.641L6.035 5.002a2.5 2.5 0 0 1 .915-3.415l.433-.25Zm-2.364 14.09-.107.186a2.786 2.786 0 0 0 1.02 3.805c.102.06.233.024.292-.078l2.893-5.01a3 3 0 0 0-4.098 1.097Zm9.864-1.098 2.893 5.01c.059.103.19.138.292.08a2.786 2.786 0 0 0 1.02-3.806l-.107-.186a3 3 0 0 0-4.098-1.098Zm1.734-12.992.433.25a2.5 2.5 0 0 1 .996 3.264l-.08.151-3.084 5.34-1.732-3 3.467-6.005Z"/></g></svg>
